packages/blockchain-info-components/src/Images/img/banks/bank-logo-citi-bank.svg

<svg fill="none" height="32" viewBox="0 0 32 32" width="32" xmlns="http://www.w3.org/2000/svg" xmlns:xlink="http://www.w3.org/1999/xlink"><clipPath id="a"><path d="m0 0h32v32h-32z"/></clipPath><g clip-path="url(#a)"><g fill="#003b70"><path d="m24.7477 23.081c-.6745.4107-1.3022.6172-1.8659.6172-.8167 0-1.1858-.4311-1.1858-1.3913v-6.5483h2.5747v-2.3239h-2.5747v-3.84005l-2.4779 1.32605v2.514h-2.1376v2.3239h2.1376v6.966c0 1.8979 1.1242 3.1944 2.8024 3.2281 1.1395.0223 1.8264-.3171 2.2436-.5653l.0245-.0182.6086-2.3795z"/><path d="m9.38446 22.1881.05545-.0536 1.43099 1.7307-.0382.0436c-1.1901 1.407-2.61806 2.0912-4.37356 2.0912-1.76157 0-3.37188-.5896-4.53242-1.6636-1.260966-1.1582-1.92672-2.795-1.92672-4.7275 0-1.9334.665754-3.5662 1.92672-4.724 1.16054-1.0692 2.77085-1.662 4.53242-1.662 1.7555 0 3.18346.6846 4.37356 2.0909l.0382.047-1.43099 1.7304-.05545-.0553c-.89383-.9131-1.92838-1.3977-2.99439-1.3977-2.22516 0-3.84039 1.6716-3.84039 3.9707 0 2.3033 1.61523 3.9725 3.84039 3.9725 1.06601 0 2.10056-.4826 2.99439-1.3933z"/><path d="m14.8451 25.7645h-2.5281v-12.3411h2.5281z"/><path d="m29.3712 25.7645h-2.5297v-12.3411h2.5297z"/></g><path clip-rule="evenodd" d="m30.8853 11.2336c-2.3142-3.27791-6.1574-5.2336-10.0675-5.2336-3.9086 0-7.7526 1.95569-10.0629 5.2336l-.1185.1687h2.9138l.0323-.035c1.9833-2.04697 4.5722-3.12949 7.2353-3.12949 2.6633 0 5.2517 1.08252 7.2388 3.12949l.0323.035h2.9129z" fill="#d9261c" fill-rule="evenodd"/></g></svg>

<svg width="32" height="32" viewBox="0 0 32 32" fill="none" xmlns="http://www.w3.org/2000/svg">
<g clip-path="url(#clip0)">
<path d="M24.7477 23.081C24.0732 23.4917 23.4455 23.6982 22.8818 23.6982C22.0651 23.6982 21.696 23.2671 21.696 22.3069V15.7586H24.2707V13.4347H21.696V9.59465L19.2181 10.9207V13.4347H17.0805V15.7586H19.2181V22.7246C19.2181 24.6225 20.3423 25.919 22.0205 25.9527C23.16 25.975 23.8469 25.6356 24.2641 25.3874L24.2886 25.3692L24.8972 22.9897L24.7477 23.081Z" fill="#003B70"/>
<path d="M9.38446 22.1881L9.43991 22.1345L10.8709 23.8652L10.8327 23.9088C9.6426 25.3158 8.21464 26 6.45914 26C4.69757 26 3.08726 25.4104 1.92672 24.3364C0.665754 23.1782 0 21.5414 0 19.6089C0 17.6755 0.665754 16.0427 1.92672 14.8849C3.08726 13.8157 4.69757 13.2229 6.45914 13.2229C8.21464 13.2229 9.6426 13.9075 10.8327 15.3138L10.8709 15.3608L9.43991 17.0912L9.38446 17.0359C8.49063 16.1228 7.45608 15.6382 6.39007 15.6382C4.16491 15.6382 2.54968 17.3098 2.54968 19.6089C2.54968 21.9122 4.16491 23.5814 6.39007 23.5814C7.45608 23.5814 8.49063 23.0988 9.38446 22.1881Z" fill="#003B70"/>
<path d="M14.8451 25.7645H12.317V13.4234H14.8451V25.7645Z" fill="#003B70"/>
<path d="M29.3712 25.7645H26.8415V13.4234H29.3712V25.7645Z" fill="#003B70"/>
<path fill-rule="evenodd" clip-rule="evenodd" d="M30.8853 11.2336C28.5711 7.95569 24.7279 6 20.8178 6C16.9092 6 13.0652 7.95569 10.7549 11.2336L10.6364 11.4023H13.5502L13.5825 11.3673C15.5658 9.32033 18.1547 8.23781 20.8178 8.23781C23.4811 8.23781 26.0695 9.32033 28.0566 11.3673L28.0889 11.4023H31.0018L30.8853 11.2336Z" fill="#D9261C"/>
</g>
<defs>
<clipPath id="clip0">
<rect width="32" height="32" fill="white"/>
</clipPath>
</defs>
</svg>
